**kern	**kern
*part1	*part1
*staff2	*staff1
*I"Piano	*
*clefF4	*clefG2
*k[b-e-a-d-]	*k[b-e-a-d-]
=1	=1
8FFL 8C	4.An 4.c 4.e- 4.f
8E-	.
8FJ	.
=	=
8FFL 8C	4.An 4.c 4.e- 4.f
8E-	.
8FJ	.
=	=
8FFL 8BB-	4dn 4f 4b-
8Dn	.
8FJ	8r
=	=
4.FF 4.F	8An'L
.	8B-'
.	8c'J
=	=
4.BB-	8d-X'L
.	8en'
.	8g'J
=	=
4.FF 4.F	8An'L
.	8B-'
.	8c'J
=	=
4.BB-	8d-X'L
.	8en'
.	8g'J
=	=
4FF 4F	4An 4c 4e- 4f
8FF 8F	8A 8c 8e- 8f
=	=
4.FF 4.F	4.An 4.c 4.e- 4.f
=	=
4FF 4F	4An 4c 4e- 4f
8FF 8F	8A 8c 8e- 8f
=	=
4.FF 4.F	4.An 4.c 4.e- 4.f
=||	=||
*-	*-
!!!system-decoration: {(s1,s2)}
